z_dist/img/icons/crypto/chiliz-CHZ.svg

<svg width="64" height="64" viewBox="0 0 64 64" fill="none" xmlns="http://www.w3.org/2000/svg">
<rect width="64" height="64" rx="4" fill="#CD0124"/>
<circle cx="32" cy="32" r="32" fill="white"/>
<path d="M38.158 33.5372C38.158 33.1117 38.158 32.8989 37.7343 32.6861C36.2512 31.6223 34.5563 30.5585 33.0732 29.4946C32.7526 29.2795 32.3345 29.2795 32.0139 29.4946L27.3528 32.8989C26.9558 33.1023 26.7091 33.5153 26.7172 33.9628C26.7073 34.4215 26.5596 34.8664 26.2935 35.2394C26.0793 35.5614 26.0793 35.9812 26.2935 36.3032C27.9884 39.7075 29.4715 43.1119 31.1664 46.5162C31.802 47.58 32.2258 48.8566 32.8614 50.1333C33.0732 49.9205 33.0732 49.7077 33.2851 49.4949C35.1919 45.2396 36.8868 40.9842 38.7936 36.7288C39.0055 36.3032 39.0055 36.0905 38.5818 35.8777C38.0995 35.2003 37.944 34.3418 38.158 33.5372Z" fill="#CD0124"/>
<path d="M30.9328 27.9413C26.6661 24.9565 22.3995 21.9716 18.3461 19.2L18.1328 19.4132C18.3461 19.8396 18.3461 20.0528 18.5595 20.4792L23.0395 30.0734C23.4661 30.9262 23.6795 31.779 24.9595 31.9922C25.3282 32.0254 25.6986 31.9514 26.0261 31.779C27.3061 30.713 28.7995 29.8602 30.0795 28.7942L30.9328 27.9413Z" fill="#CD0124"/>
<path fill-rule="evenodd" clip-rule="evenodd" d="M0 32C0 14.3269 14.3269 0 32 0C40.4869 0 48.6263 3.37142 54.6274 9.37258C60.6286 15.3737 64 23.5131 64 32C64 49.6731 49.6731 64 32 64C14.3269 64 0 49.6731 0 32ZM48.4257 19.1997C48.6391 18.7731 48.8524 18.5597 49.2791 18.5597C50.6422 18.3476 51.6421 17.1658 51.6257 15.7864C51.5354 14.6333 50.7874 13.636 49.7057 13.2264C48.5833 12.8042 47.3201 13.2553 46.7191 14.2931C46.5057 14.9331 46.0791 14.9331 45.6524 14.9331H18.5591C17.9191 14.9331 17.7057 14.9331 17.4924 14.5064C16.8201 13.4287 15.4768 12.9809 14.2924 13.4397C13.1905 13.94 12.4528 15.0056 12.3724 16.2131C12.4413 17.518 13.4251 18.5911 14.7191 18.7731C15.3591 18.7731 15.5724 18.9864 15.5724 19.1997C17.7057 23.4664 19.6257 27.5197 21.5457 31.7864C21.7614 32.1092 21.7614 32.5302 21.5457 32.8531C21.1004 33.6287 21.0631 34.5734 21.446 35.3817C21.8289 36.19 22.5834 36.7596 23.4657 36.9064C23.9382 37.002 24.3354 37.3198 24.5324 37.7597C25.5991 39.8931 26.6124 42.0264 27.6257 44.1597C28.6391 46.2931 29.6524 48.4264 30.7191 50.5597C30.9315 50.96 30.9315 51.4395 30.7191 51.8397C30.3507 52.377 30.2111 53.0388 30.3312 53.6791C30.4513 54.3194 30.8211 54.8857 31.3591 55.2531C32.3905 56.0444 33.8476 55.9533 34.7724 55.0397C35.84 54.1278 36.0258 52.5479 35.1991 51.4131C34.9834 51.0902 34.9834 50.6692 35.1991 50.3464C36.9057 46.0797 38.8257 41.5997 40.7457 37.3331C40.9591 36.9064 41.1724 36.6931 41.3857 36.6931C42.1585 36.46 42.7914 35.9018 43.1192 35.1642C43.447 34.4267 43.4372 33.5828 43.0924 32.8531V31.9997C43.9457 29.8664 44.8524 27.733 45.7591 25.5997C46.6657 23.4664 47.5724 21.3331 48.4257 19.1997Z" fill="#CD0124"/>
<path d="M32 26.504C32.3202 26.7209 32.7379 26.7209 33.0582 26.504C37.0793 23.5012 41.1005 20.7129 44.91 17.7101C45.1217 17.4956 45.3333 17.4956 45.3333 17.2811V17.0667H18.6666C18.9088 17.1567 19.1264 17.3037 19.3015 17.4956L32 26.504Z" fill="#CD0124"/>
<path d="M34.1328 27.9865C35.809 29.2562 37.4852 30.3143 39.1614 31.3724C39.5804 31.5841 40.209 31.3724 40.8376 31.3724C41.0471 31.3724 41.2566 30.9492 41.2566 30.7376C42.7233 27.3516 44.19 23.754 45.6566 20.368C45.6566 20.1564 45.8661 19.9448 45.8661 19.7332H45.6566C42.0947 22.2726 38.1138 25.0237 34.1328 27.9865Z" fill="#CD0124"/>
</svg>

<svg width="64" height="64" fill="none" xmlns="http://www.w3.org/2000/svg"><rect width="64" height="64" rx="4" fill="#CD0124"/><circle cx="32" cy="32" r="32" fill="#fff"/><path d="M38.158 33.537c0-.425 0-.638-.424-.85-1.483-1.065-3.178-2.128-4.66-3.192a.95.95 0 00-1.06 0l-4.661 3.404a1.171 1.171 0 00-.636 1.064c-.01.459-.157.903-.423 1.276a.96.96 0 000 1.064c1.694 3.405 3.177 6.809 4.872 10.213.636 1.064 1.06 2.34 1.695 3.617.212-.213.212-.425.424-.638 1.907-4.255 3.602-8.51 5.509-12.766.212-.426.212-.639-.212-.851a2.797 2.797 0 01-.424-2.34zm-7.225-5.596c-4.267-2.985-8.534-5.97-12.587-8.741l-.213.213c.213.427.213.64.427 1.066l4.48 9.594c.426.853.64 1.706 1.92 1.92.368.032.739-.042 1.066-.214 1.28-1.066 2.773-1.919 4.053-2.985l.854-.853z" fill="#CD0124"/><path fill-rule="evenodd" clip-rule="evenodd" d="M0 32C0 14.327 14.327 0 32 0a32 32 0 0132 32c0 17.673-14.327 32-32 32C14.327 64 0 49.673 0 32zm48.426-12.8c.213-.427.426-.64.853-.64a2.773 2.773 0 002.347-2.774 2.987 2.987 0 00-1.92-2.56 2.453 2.453 0 00-2.987 1.067c-.213.64-.64.64-1.067.64H18.56c-.64 0-.853 0-1.067-.427a2.645 2.645 0 00-3.2-1.066 3.286 3.286 0 00-1.92 2.773 2.73 2.73 0 002.347 2.56c.64 0 .853.213.853.427a335.79 335.79 0 015.974 12.586.96.96 0 010 1.067 2.73 2.73 0 001.92 4.053c.472.096.87.414 1.066.854a350.642 350.642 0 013.094 6.4c1.013 2.133 2.026 4.266 3.093 6.4.212.4.212.88 0 1.28a2.453 2.453 0 00.64 3.413c1.032.791 2.489.7 3.413-.213a2.688 2.688 0 00.427-3.627.96.96 0 010-1.067 339.746 339.746 0 015.547-13.013c.213-.427.426-.64.64-.64a2.773 2.773 0 001.706-3.84V32a325 325 0 012.667-6.4 330.15 330.15 0 002.667-6.4z" fill="#CD0124"/><path d="M32 26.504a.942.942 0 001.058 0c4.021-3.003 8.042-5.791 11.852-8.794.212-.214.423-.214.423-.429v-.214H18.667c.242.09.46.237.634.429L32 26.504zm2.133 1.482c1.676 1.27 3.352 2.328 5.028 3.386.42.212 1.048 0 1.677 0 .21 0 .419-.423.419-.634 1.466-3.386 2.933-6.984 4.4-10.37 0-.212.21-.423.21-.635h-.21c-3.562 2.54-7.543 5.29-11.524 8.253z" fill="#CD0124"/></svg>
